svgs/regular/id-badge.svg

<svg xmlns="http://www.w3.org/2000/svg" viewBox="0 0 384 512"><!--! Font Awesome Free 7.2.0 by @fontawesome - https://fontawesome.com License - https://fontawesome.com/license/free (Icons: CC BY 4.0, Fonts: SIL OFL 1.1, Code: MIT License) Copyright 2026 Fonticons, Inc. --><path fill="currentColor" d="M256 48l0 16c0 17.7-14.3 32-32 32l-64 0c-17.7 0-32-14.3-32-32l0-16-64 0c-8.8 0-16 7.2-16 16l0 384c0 8.8 7.2 16 16 16l256 0c8.8 0 16-7.2 16-16l0-384c0-8.8-7.2-16-16-16l-64 0zM0 64C0 28.7 28.7 0 64 0L320 0c35.3 0 64 28.7 64 64l0 384c0 35.3-28.7 64-64 64L64 512c-35.3 0-64-28.7-64-64L0 64zM160 320l64 0c44.2 0 80 35.8 80 80 0 8.8-7.2 16-16 16L96 416c-8.8 0-16-7.2-16-16 0-44.2 35.8-80 80-80zm-24-96a56 56 0 1 1 112 0 56 56 0 1 1 -112 0z"/></svg>

<svg xmlns="http://www.w3.org/2000/svg" viewBox="0 0 384 512"><!--! Font Awesome Free 6.5.2 by @fontawesome - https://fontawesome.com License - https://fontawesome.com/license/free (Icons: CC BY 4.0, Fonts: SIL OFL 1.1, Code: MIT License) Copyright 2024 Fonticons, Inc. --><path d="M256 48V64c0 17.7-14.3 32-32 32H160c-17.7 0-32-14.3-32-32V48H64c-8.8 0-16 7.2-16 16V448c0 8.8 7.2 16 16 16H320c8.8 0 16-7.2 16-16V64c0-8.8-7.2-16-16-16H256zM0 64C0 28.7 28.7 0 64 0H320c35.3 0 64 28.7 64 64V448c0 35.3-28.7 64-64 64H64c-35.3 0-64-28.7-64-64V64zM160 320h64c44.2 0 80 35.8 80 80c0 8.8-7.2 16-16 16H96c-8.8 0-16-7.2-16-16c0-44.2 35.8-80 80-80zm-32-96a64 64 0 1 1 128 0 64 64 0 1 1 -128 0z"/></svg>
